favicon.svg

<svg fill="none" height="64" viewBox="0 0 64 64" width="64" xmlns="http://www.w3.org/2000/svg"><path d="m0 0h64v64h-64z" fill="#fff"/><path d="m0 0h64v64h-64z" fill="#edf5f3"/><path d="m50.7207 40.9972c-2.8595 0-5.5552-1.5212-7.7981-4.3984-.5946-.7634-1.1259-1.5724-1.5887-2.4191-.4668.8441-.9973 1.6527-1.5872 2.4191-2.2429 2.8786-4.9328 4.3998-7.7996 4.3998s-5.5552-1.5212-7.7981-4.3984c-.5951-.7631-1.1264-1.5721-1.5887-2.4191-.4667.8441-.9973 1.6527-1.5872 2.4191-2.2429 2.8786-4.9328 4.3998-7.7996 4.3998-2.4335-.0006-4.76717-.9493-6.48754-2.6374-1.72037-1.6882-2.68654-3.9775-2.68596-6.3643s.96785-4.6757 2.68904-6.363c1.72119-1.6874 4.05526-2.635 6.48886-2.6344 3.1105 0 5.8903 1.5283 8.0375 4.4211.505.6934.956 1.4231 1.3493 2.1829.394-.7589.845-1.4881 1.3492-2.1814 2.1531-2.8943 4.9328-4.4226 8.0376-4.4226 3.1047 0 5.8758 1.5283 8.023 4.4211.5031.6921.9532 1.4198 1.3464 2.1772.3956-.7568.8476-1.484 1.3521-2.1757 2.1226-2.8929 4.8965-4.4226 8.0231-4.4226 1.2143-.0168 2.42.2031 3.5471.6469s2.1531 1.1027 3.0186 1.9383c.8655.8357 1.5532 1.8316 2.0232 2.93s.7131 2.2773.715 3.4685-.2373 2.3709-.7038 3.4707-1.151 2.0979-2.0138 2.9362c-.8627.8384-1.8866 1.5004-3.0123 1.9477-1.1256.4473-2.3306.6709-3.545.658zm-8.3727-9.0316c.6419 1.4248 1.4758 2.7586 2.4795 3.9658 1.7918 2.1131 3.7721 3.1832 5.8686 3.1832 1.9239 0 3.769-.7496 5.1294-2.0839s2.1246-3.144 2.1246-5.031c0-1.8869-.7642-3.6966-2.1246-5.0309s-3.2055-2.0839-5.1294-2.0839c-5.2665-.01-7.7764 5.5894-8.3481 7.0807zm-18.7576 0c.663 1.4913 3.5023 7.149 8.348 7.149 4.8458 0 7.6894-5.662 8.3509-7.1504-.457-1.2053-2.9582-7.0836-8.3509-7.0836-5.2679-.0057-7.7778 5.5951-8.348 7.085zm-10.427-7.0907c-1.9239 0-3.76904.7496-5.12945 2.0839-1.3604 1.3343-2.12467 3.144-2.12467 5.031 0 1.8869.76427 3.6966 2.12467 5.0309 1.36041 1.3343 3.20555 2.0839 5.12945 2.0839 4.8486 0 7.6893-5.662 8.3509-7.1504-.4556-1.201-2.9582-7.0793-8.3509-7.0793z" stroke="#30f" stroke-width="2"/><g fill="#30f"><path d="m22 30h2v4h-2z"/><path d="m41 30h2v4h-2z"/><path d="m57 27h2v3h-2z"/><path d="m58 30h2v3h-2z"/><path d="m57 34h2v3h-2z"/><path d="m58 32h2v3h-2z"/></g></svg>

<svg width="64" height="64" viewBox="0 0 64 64" fill="none" xmlns="http://www.w3.org/2000/svg">
<rect width="64" height="64" fill="white"/>
<rect width="64" height="64" fill="#EDF5F3"/>
<path d="M50.7207 40.9972C47.8612 40.9972 45.1655 39.476 42.9226 36.5988C42.328 35.8354 41.7967 35.0264 41.3339 34.1797C40.8671 35.0238 40.3366 35.8324 39.7467 36.5988C37.5038 39.4774 34.8139 40.9986 31.9471 40.9986C29.0803 40.9986 26.3919 39.4774 24.149 36.6002C23.5539 35.8371 23.0226 35.0281 22.5603 34.1811C22.0936 35.0252 21.563 35.8338 20.9731 36.6002C18.7302 39.4788 16.0403 41 13.1735 41C10.74 40.9994 8.40633 40.0507 6.68596 38.3626C4.96559 36.6744 3.99942 34.3851 4 31.9983C4.00058 29.6115 4.96785 27.3226 6.68904 25.6353C8.41023 23.9479 10.7443 23.0003 13.1779 23.0009C16.2884 23.0009 19.0682 24.5292 21.2154 27.422C21.7204 28.1154 22.1714 28.8451 22.5647 29.6049C22.9587 28.846 23.4097 28.1168 23.9139 27.4235C26.067 24.5292 28.8467 23.0009 31.9515 23.0009C35.0562 23.0009 37.8273 24.5292 39.9745 27.422C40.4776 28.1141 40.9277 28.8418 41.3209 29.5992C41.7165 28.8424 42.1685 28.1152 42.673 27.4235C44.7956 24.5306 47.5695 23.0009 50.6961 23.0009C51.9104 22.9841 53.1161 23.204 54.2432 23.6478C55.3703 24.0916 56.3963 24.7505 57.2618 25.5861C58.1273 26.4218 58.815 27.4177 59.285 28.5161C59.755 29.6145 59.9981 30.7934 60 31.9846C60.0019 33.1758 59.7627 34.3555 59.2962 35.4553C58.8297 36.5551 58.1452 37.5532 57.2824 38.3915C56.4197 39.2299 55.3958 39.8919 54.2701 40.3392C53.1445 40.7865 51.9395 41.0101 50.7251 40.9972H50.7207ZM42.348 31.9656C42.9899 33.3904 43.8238 34.7242 44.8275 35.9314C46.6193 38.0445 48.5996 39.1146 50.6961 39.1146C52.62 39.1146 54.4651 38.365 55.8255 37.0307C57.1859 35.6964 57.9501 33.8867 57.9501 31.9997C57.9501 30.1128 57.1859 28.3031 55.8255 26.9688C54.4651 25.6345 52.62 24.8849 50.6961 24.8849C45.4296 24.8749 42.9197 30.4743 42.348 31.9656ZM23.5904 31.9656C24.2534 33.4569 27.0927 39.1146 31.9384 39.1146C36.7842 39.1146 39.6278 33.4526 40.2893 31.9642C39.8323 30.7589 37.3311 24.8806 31.9384 24.8806C26.6705 24.8749 24.1606 30.4757 23.5904 31.9656ZM13.1634 24.8749C11.2395 24.8749 9.39436 25.6245 8.03395 26.9588C6.67355 28.2931 5.90928 30.1028 5.90928 31.9898C5.90928 33.8767 6.67355 35.6864 8.03395 37.0207C9.39436 38.355 11.2395 39.1046 13.1634 39.1046C18.012 39.1046 20.8527 33.4426 21.5143 31.9542C21.0587 30.7532 18.5561 24.8749 13.1634 24.8749Z" stroke="#3300FF" stroke-width="2"/>
<rect x="22" y="30" width="2" height="4" fill="#3300FF"/>
<rect x="41" y="30" width="2" height="4" fill="#3300FF"/>
<rect x="57" y="27" width="2" height="3" fill="#3300FF"/>
<rect x="58" y="30" width="2" height="3" fill="#3300FF"/>
<rect x="57" y="34" width="2" height="3" fill="#3300FF"/>
<rect x="58" y="32" width="2" height="3" fill="#3300FF"/>
</svg>
